src/basic/200/u1F4D6-book.svg

<svg width="63" height="64" viewBox="0 0 63 64" fill="none" xmlns="http://www.w3.org/2000/svg">
<path fill-rule="evenodd" clip-rule="evenodd" d="M6.99998,9h0.5h15.99002h0.5v1h-0.5h-15.49002v37h15.50002h0.5v1h-0.5h-16.00002h-0.5v-0.5v-38zM0.00006,15h0.5h3.99994h0.5v1h-0.5h-3.49994v38h29.98104c-0.2554,-3.3562 -3.0595,-6 -6.4811,-6h-0.5v-1h0.5c2.7785,0 5.204,1.5109 6.5,3.7558v-34.2558c0,-3.5899 -2.9101,-6.5 -6.5,-6.5h-0.5v-1h0.5c3.191,0 5.9166,1.9929 7,4.8019c1.0835,-2.809 3.809,-4.8019 7.0001,-4.8019h0.5v1h-0.5c-3.5899,0 -6.5,2.9101 -6.5,6.5v34.2558c1.2959,-2.2449 3.7215,-3.7558 6.5,-3.7558h0.5v1h-0.5c-3.4217,0 -6.2258,2.6438 -6.4811,6h29.981v-38h-3.4999h-0.5v-1h0.5h3.9999h0.5v0.5v39v0.5h-0.5h-30.4999h-0.0001h-0.4999h-0.0001h-0.4999h-0.0001h-30.49994h-0.5v-0.5v-39zM23.5,15h0.5v1h-0.5h-10h-0.5v-1h0.5zM23.5,20h0.5v1h-0.5h-10h-0.5v-1h0.5zM24,26h-0.5h-10h-0.5v-1h0.5h10h0.5zM23.5,30h0.5v1h-0.5h-10h-0.5v-1h0.5zM24,36h-0.5h-10h-0.5v-1h0.5h10h0.5zM23.5,40h0.5v1h-0.5h-10h-0.5v-1h0.5zM56.0001,9.5v38v0.5h-0.5h-16h-0.5v-1h0.5h15.5v-37h-15.49h-0.5v-1h0.5h15.99h0.5zM49.5001,15h0.5v1h-0.5h-10h-0.5v-1h0.5zM49.5001,20h0.5v1h-0.5h-10h-0.5v-1h0.5zM39.0001,25h0.5h10h0.5v1h-0.5h-10h-0.5zM49.5001,30h0.5v1h-0.5h-10h-0.5v-1h0.5zM39.0001,35h0.5h10h0.5v1h-0.5h-10h-0.5zM49.5001,40h0.5v1h-0.5h-10h-0.5v-1h0.5z" fill="black"/>
</svg>

<svg width="63" height="64" viewBox="0 0 63 64" fill="none" xmlns="http://www.w3.org/2000/svg">
<path fill-rule="evenodd" clip-rule="evenodd" d="M6.99998 9H7.49998H23.49H23.99V10H23.49H7.99998V47H23.5H24V48H23.5H7.49998H6.99998V47.5V9.5V9ZM6.10352e-05 15H0.500061H4.5H5V16H4.5H1.00006V54H30.9811C30.7257 50.6438 27.9216 48 24.5 48H24V47H24.5C27.2785 47 29.704 48.5109 31 50.7558V16.5C31 12.9101 28.0899 10 24.5 10H24V9H24.5C27.691 9 30.4166 10.9929 31.5 13.8019C32.5835 10.9929 35.309 9 38.5001 9H39.0001V10H38.5001C34.9102 10 32.0001 12.9101 32.0001 16.5V50.7558C33.296 48.5109 35.7216 47 38.5001 47H39.0001V48H38.5001C35.0784 48 32.2743 50.6438 32.019 54H62V16H58.5001H58.0001V15H58.5001H62.5H63V15.5V54.5V55H62.5H32.0001H32H31.5001H31.5H31.0001H31H0.500061H6.10352e-05V54.5V15.5V15ZM23.5 15H24V16H23.5H13.5H13V15H13.5H23.5ZM23.5 20H24V21H23.5H13.5H13V20H13.5H23.5ZM24 25H23.5H13.5H13V26H13.5H23.5H24V25ZM23.5 30H24V31H23.5H13.5H13V30H13.5H23.5ZM24 35H23.5H13.5H13V36H13.5H23.5H24V35ZM23.5 40H24V41H23.5H13.5H13V40H13.5H23.5ZM56.0001 9H55.5001H39.5101H39.0101V10H39.5101H55.0001V47H39.5001H39.0001V48H39.5001H55.5001H56.0001V47.5V9.5V9ZM39.5001 15H39.0001V16H39.5001H49.5001H50.0001V15H49.5001H39.5001ZM39.5001 20H39.0001V21H39.5001H49.5001H50.0001V20H49.5001H39.5001ZM39.0001 25H39.5001H49.5001H50.0001V26H49.5001H39.5001H39.0001V25ZM39.5001 30H39.0001V31H39.5001H49.5001H50.0001V30H49.5001H39.5001ZM39.0001 35H39.5001H49.5001H50.0001V36H49.5001H39.5001H39.0001V35ZM39.5001 40H39.0001V41H39.5001H49.5001H50.0001V40H49.5001H39.5001Z" fill="black"/>
</svg>
